src/img/icon_settings_grey.svg

<?xml version="1.0" encoding="UTF-8" standalone="no"?><!DOCTYPE svg PUBLIC "-//W3C//DTD SVG 1.1//EN" "http://www.w3.org/Graphics/SVG/1.1/DTD/svg11.dtd"><svg width="100%" height="100%" viewBox="0 0 22 22" version="1.1" xmlns="http://www.w3.org/2000/svg" xmlns:xlink="http://www.w3.org/1999/xlink" xml:space="preserve" style="fill-rule:evenodd;clip-rule:evenodd;stroke-linejoin:round;stroke-miterlimit:1.41421;"><clipPath id="_clip1"><path d="M21.928,12.285c-0.077,0.677 -0.648,1.188 -1.329,1.192l-0.083,0l-0.1,0c-0.612,0.003 -1.158,0.382 -1.375,0.953c-0.218,0.571 -0.061,1.217 0.394,1.626c0.523,0.482 0.586,1.285 0.146,1.843c-0.526,0.654 -1.125,1.244 -1.787,1.76c-0.236,0.184 -0.526,0.285 -0.825,0.286c-0.38,-0.001 -0.741,-0.159 -1,-0.437c-0.3,-0.309 -0.714,-0.482 -1.146,-0.477c-0.175,-0.001 -0.349,0.031 -0.513,0.096c-0.572,0.24 -0.937,0.809 -0.917,1.43c0.023,0.705 -0.5,1.309 -1.201,1.388c-0.822,0.091 -1.653,0.089 -2.475,-0.007c-0.708,-0.082 -1.228,-0.706 -1.182,-1.418c0.031,-0.626 -0.331,-1.206 -0.908,-1.453c-0.166,-0.067 -0.343,-0.101 -0.522,-0.1c-0.431,-0.003 -0.845,0.169 -1.146,0.477c-0.482,0.53 -1.293,0.595 -1.852,0.147c-0.643,-0.52 -1.224,-1.112 -1.733,-1.763c-0.44,-0.552 -0.376,-1.35 0.147,-1.825c0.456,-0.421 0.605,-1.081 0.376,-1.658c-0.22,-0.544 -0.743,-0.904 -1.33,-0.917l-0.055,0c-0.708,0.01 -1.319,-0.498 -1.439,-1.196c-0.101,-0.831 -0.101,-1.671 0,-2.502c0.073,-0.697 0.675,-1.219 1.375,-1.192c0.634,0.025 1.222,-0.331 1.495,-0.903c0.239,-0.581 0.089,-1.25 -0.376,-1.672c-0.523,-0.481 -0.587,-1.284 -0.147,-1.842c0.524,-0.653 1.121,-1.243 1.778,-1.76c0.24,-0.185 0.533,-0.286 0.835,-0.287c0.38,0.001 0.742,0.16 0.999,0.44c0.302,0.307 0.715,0.478 1.146,0.474c0.175,0.001 0.349,-0.03 0.513,-0.092c0.573,-0.241 0.938,-0.811 0.917,-1.433c-0.022,-0.704 0.501,-1.308 1.201,-1.386c0.823,-0.091 1.653,-0.089 2.475,0.006c0.708,0.084 1.228,0.706 1.183,1.418c-0.035,0.628 0.328,1.21 0.907,1.455c0.167,0.066 0.344,0.099 0.523,0.099c0.431,0.003 0.844,-0.169 1.146,-0.476c0.478,-0.529 1.285,-0.594 1.842,-0.149c0.647,0.518 1.231,1.109 1.742,1.761c0.443,0.554 0.379,1.357 -0.146,1.834c-0.457,0.413 -0.61,1.066 -0.383,1.639c0.226,0.573 0.784,0.945 1.4,0.934c0.704,-0.006 1.309,0.498 1.43,1.192c0.096,0.829 0.096,1.666 0,2.495Zm-1.815,-2.129c-1.17,-0.028 -2.212,-0.744 -2.657,-1.827c-0.445,-1.082 -0.208,-2.324 0.604,-3.167c-0.358,-0.439 -0.757,-0.843 -1.192,-1.205c-0.57,0.531 -1.32,0.826 -2.1,0.825c-0.374,0.002 -0.745,-0.071 -1.09,-0.214c-1.087,-0.46 -1.797,-1.521 -1.806,-2.702c-0.565,-0.052 -1.132,-0.052 -1.696,0c-0.064,1.137 -0.817,2.119 -1.898,2.476c-0.307,0.194 -0.65,0.324 -1.008,0.382c-0.775,0.001 -1.522,-0.291 -2.091,-0.817c-0.447,0.362 -0.859,0.766 -1.228,1.207c0.821,0.849 1.059,2.104 0.605,3.194c-0.473,1.072 -1.524,1.775 -2.695,1.803c-0.054,0.573 -0.057,1.149 -0.009,1.723c1.172,0.023 2.219,0.739 2.665,1.824c0.446,1.085 0.206,2.331 -0.612,3.171c0.362,0.436 0.761,0.839 1.192,1.207c0.571,-0.529 1.321,-0.823 2.099,-0.825c0.378,-0.003 0.752,0.07 1.1,0.214c1.088,0.458 1.798,1.52 1.806,2.7c0.564,0.053 1.132,0.053 1.696,0c0.037,-1.165 0.75,-2.201 1.825,-2.652c0.34,-0.137 0.705,-0.207 1.072,-0.205c0.778,-0.003 1.528,0.289 2.099,0.817c0.445,-0.365 0.856,-0.769 1.229,-1.207c-0.826,-0.846 -1.064,-2.104 -0.605,-3.194c0.463,-1.082 1.518,-1.791 2.695,-1.81c0.055,-0.572 0.055,-1.149 0,-1.722l0,0.004Zm-9.112,4.513c-1.487,0.006 -2.831,-0.885 -3.404,-2.257c-0.573,-1.372 -0.262,-2.954 0.787,-4.007c1.049,-1.054 2.63,-1.371 4.004,-0.803c1.374,0.568 2.27,1.908 2.27,3.394c0.004,2.024 -1.634,3.668 -3.657,3.673Zm0,-5.493c-1.012,0.005 -1.828,0.828 -1.825,1.839c0.004,1.012 0.825,1.829 1.837,1.828c1.011,-0.002 1.83,-0.823 1.83,-1.834c0.001,-0.488 -0.194,-0.956 -0.54,-1.3c-0.345,-0.345 -0.814,-0.537 -1.302,-0.534l0,0.001Z"/></clipPath><g clip-path="url(#_clip1)"><rect x="-4.586" y="-4.573" width="31.17" height="31.169" style="fill:#b6b6b6;fill-rule:nonzero;"/></g></svg>

<?xml version="1.0" encoding="UTF-8" standalone="no"?>
<!DOCTYPE svg PUBLIC "-//W3C//DTD SVG 1.1//EN" "http://www.w3.org/Graphics/SVG/1.1/DTD/svg11.dtd">
<svg width="100%" height="100%" viewBox="0 0 22 22" version="1.1" xmlns="http://www.w3.org/2000/svg" xmlns:xlink="http://www.w3.org/1999/xlink" xml:space="preserve" xmlns:serif="http://www.serif.com/" style="fill-rule:evenodd;clip-rule:evenodd;stroke-linejoin:round;stroke-miterlimit:1.41421;">
    <clipPath id="_clip1">
        <path d="M21.928,12.285C21.851,12.962 21.28,13.473 20.599,13.477L20.516,13.477L20.416,13.477C19.804,13.48 19.258,13.859 19.041,14.43C18.823,15.001 18.98,15.647 19.435,16.056C19.958,16.538 20.021,17.341 19.581,17.899C19.055,18.553 18.456,19.143 17.794,19.659C17.558,19.843 17.268,19.944 16.969,19.945C16.589,19.944 16.228,19.786 15.969,19.508C15.669,19.199 15.255,19.026 14.823,19.031C14.648,19.03 14.474,19.062 14.31,19.127C13.738,19.367 13.373,19.936 13.393,20.557C13.416,21.262 12.893,21.866 12.192,21.945C11.37,22.036 10.539,22.034 9.717,21.938C9.009,21.856 8.489,21.232 8.535,20.52C8.566,19.894 8.204,19.314 7.627,19.067C7.461,19 7.284,18.966 7.105,18.967C6.674,18.964 6.26,19.136 5.959,19.444C5.477,19.974 4.666,20.039 4.107,19.591C3.464,19.071 2.883,18.479 2.374,17.828C1.934,17.276 1.998,16.478 2.521,16.003C2.977,15.582 3.126,14.922 2.897,14.345C2.677,13.801 2.154,13.441 1.567,13.428L1.512,13.428C0.804,13.438 0.193,12.93 0.073,12.232C-0.028,11.401 -0.028,10.561 0.073,9.73C0.146,9.033 0.748,8.511 1.448,8.538C2.082,8.563 2.67,8.207 2.943,7.635C3.182,7.054 3.032,6.385 2.567,5.963C2.044,5.482 1.98,4.679 2.42,4.121C2.944,3.468 3.541,2.878 4.198,2.361C4.438,2.176 4.731,2.075 5.033,2.074C5.413,2.075 5.775,2.234 6.032,2.514C6.334,2.821 6.747,2.992 7.178,2.988C7.353,2.989 7.527,2.958 7.691,2.896C8.264,2.655 8.629,2.085 8.608,1.463C8.586,0.759 9.109,0.155 9.809,0.077C10.632,-0.014 11.462,-0.012 12.284,0.083C12.992,0.167 13.512,0.789 13.467,1.501C13.432,2.129 13.795,2.711 14.374,2.956C14.541,3.022 14.718,3.055 14.897,3.055C15.328,3.058 15.741,2.886 16.043,2.579C16.521,2.05 17.328,1.985 17.885,2.43C18.532,2.948 19.116,3.539 19.627,4.191C20.07,4.745 20.006,5.548 19.481,6.025C19.024,6.438 18.871,7.091 19.098,7.664C19.324,8.237 19.882,8.609 20.498,8.598C21.202,8.592 21.807,9.096 21.928,9.79C22.024,10.619 22.024,11.456 21.928,12.285ZM20.113,10.156C18.943,10.128 17.901,9.412 17.456,8.329C17.011,7.247 17.248,6.005 18.06,5.162C17.702,4.723 17.303,4.319 16.868,3.957C16.298,4.488 15.548,4.783 14.768,4.782C14.394,4.784 14.023,4.711 13.678,4.568C12.591,4.108 11.881,3.047 11.872,1.866C11.307,1.814 10.74,1.814 10.176,1.866C10.112,3.003 9.359,3.985 8.278,4.342C7.971,4.536 7.628,4.666 7.27,4.724C6.495,4.725 5.748,4.433 5.179,3.907C4.732,4.269 4.32,4.673 3.951,5.114C4.772,5.963 5.01,7.218 4.556,8.308C4.083,9.38 3.032,10.083 1.861,10.111C1.807,10.684 1.804,11.26 1.852,11.834C3.024,11.857 4.071,12.573 4.517,13.658C4.963,14.743 4.723,15.989 3.905,16.829C4.267,17.265 4.666,17.668 5.097,18.036C5.668,17.507 6.418,17.213 7.196,17.211C7.574,17.208 7.948,17.281 8.296,17.425C9.384,17.883 10.094,18.945 10.102,20.125C10.666,20.178 11.234,20.178 11.798,20.125C11.835,18.96 12.548,17.924 13.623,17.473C13.963,17.336 14.328,17.266 14.695,17.268C15.473,17.265 16.223,17.557 16.794,18.085C17.239,17.72 17.65,17.316 18.023,16.878C17.197,16.032 16.959,14.774 17.418,13.684C17.881,12.602 18.936,11.893 20.113,11.874C20.168,11.302 20.168,10.725 20.113,10.152L20.113,10.156ZM11.001,14.669C9.514,14.675 8.17,13.784 7.597,12.412C7.024,11.04 7.335,9.458 8.384,8.405C9.433,7.351 11.014,7.034 12.388,7.602C13.762,8.17 14.658,9.51 14.658,10.996C14.662,13.02 13.024,14.664 11.001,14.669ZM11.001,9.176C9.989,9.181 9.173,10.004 9.176,11.015C9.18,12.027 10.001,12.844 11.013,12.843C12.024,12.841 12.843,12.02 12.843,11.009C12.844,10.521 12.649,10.053 12.303,9.709C11.958,9.364 11.489,9.172 11.001,9.175L11.001,9.176Z"/>
    </clipPath>
    <g clip-path="url(#_clip1)">
        <rect x="-4.586" y="-4.573" width="31.17" height="31.169" style="fill:rgb(87,95,113);"/>
    </g>
</svg>
